src/components/icons/tokens/imBTC.svg

<svg width="332" height="332" viewBox="0 0 332 332" fill="none" xmlns="http://www.w3.org/2000/svg">
<circle cx="165.5" cy="166.5" r="141.5" fill="white"/>
<path d="M166 331C198.634 331 230.535 321.323 257.669 303.192C284.803 285.062 305.952 259.293 318.44 229.143C330.929 198.993 334.196 165.817 327.83 133.81C321.463 101.803 305.748 72.4031 282.673 49.3274C259.597 26.2517 230.197 10.537 198.19 4.17044C166.183 -2.19612 133.007 1.07143 102.857 13.5599C72.7074 26.0484 46.9379 47.1968 28.8075 74.3309C10.6771 101.465 1 133.366 1 166C1 209.761 18.3839 251.729 49.3274 282.673C80.2709 313.616 122.239 331 166 331V331ZM166 303.71C138.764 303.707 112.141 295.628 89.4964 280.496C66.8517 265.364 49.2021 243.857 38.7793 218.694C28.3564 193.532 25.6283 165.844 30.9399 139.132C36.2514 112.419 49.3641 87.881 68.62 68.62C94.5131 43.1129 129.44 28.8758 165.786 29.0123C202.132 29.1488 236.951 43.6477 262.651 69.3486C288.352 95.0494 302.851 129.868 302.988 166.214C303.124 202.56 288.887 237.487 263.38 263.38C250.621 276.207 235.445 286.376 218.729 293.299C202.014 300.221 184.092 303.76 166 303.71V303.71ZM166 47.37C142.537 47.37 119.601 54.3275 100.093 67.3628C80.5841 80.398 65.379 98.9255 56.4002 120.602C47.4213 142.279 45.0721 166.132 49.6494 189.144C54.2268 212.156 65.5252 233.293 82.1159 249.884C98.7066 266.475 119.844 277.773 142.856 282.351C165.868 286.928 189.721 284.579 211.398 275.6C233.075 266.621 251.602 251.416 264.637 231.907C277.672 212.399 284.63 189.463 284.63 166C284.593 134.549 272.083 104.396 249.843 82.1569C227.604 59.9174 197.451 47.4071 166 47.37V47.37ZM102.26 205.23H229.74V224.73H102.26V205.23ZM152.09 195.81V184.62H142.09V105.94H152.09V95.27H159.55V105.94H168.82V95.27H176.28V106C180.92 106.19 186.75 106.93 191.21 109.69C199.66 115.07 200.32 124.26 200.32 126.95C200.32 132.06 198.67 136.28 195.55 139.17C193.802 140.923 191.774 142.373 189.55 143.46C199.7 146.67 203.41 155.1 203.41 162.4C203.439 166.365 202.341 170.256 200.243 173.62C198.145 176.984 195.133 179.682 191.56 181.4C188.2 183.15 183.07 184.18 176.3 184.49V195.78H168.84V184.62H159.57V195.81H152.09ZM160 120V137.1H170.29C176.36 137.1 182.29 136.43 182.29 128.4C182.29 120.64 176.72 120 169.98 120H160ZM160 151.23V170.12H170C179 170.12 184.85 169.49 184.85 160.99C184.85 151.94 177.68 151.23 168.31 151.23H160Z" fill="#020202"/>
</svg>

<svg xmlns="http://www.w3.org/2000/svg" viewBox="0 0 332 332"><defs><style>.cls-1{fill:#020202;}</style></defs><g id="Layer_3" data-name="Layer 3"><path class="cls-1" d="M166,331A165,165,0,1,0,1,166,165,165,0,0,0,166,331Zm0-27.29A137.72,137.72,0,0,1,68.62,68.62,137.72,137.72,0,0,1,263.38,263.38,136.82,136.82,0,0,1,166,303.71Zm0-256.34A118.63,118.63,0,1,0,284.63,166,118.77,118.77,0,0,0,166,47.37ZM102.26,205.23H229.74v19.5H102.26Zm49.83-9.42V184.62h-10V105.94h10V95.27h7.46v10.67h9.27V95.27h7.46V106c4.64.19,10.47.93,14.93,3.69,8.45,5.38,9.11,14.57,9.11,17.26,0,5.11-1.65,9.33-4.77,12.22a22.28,22.28,0,0,1-6,4.29c10.15,3.21,13.86,11.64,13.86,18.94a20.91,20.91,0,0,1-11.85,19c-3.36,1.75-8.49,2.78-15.26,3.09v11.29h-7.46V184.62h-9.27v11.19ZM160,120v17.1h10.29c6.07,0,12-.67,12-8.7,0-7.76-5.57-8.4-12.31-8.4Zm0,31.23v18.89h10c9,0,14.85-.63,14.85-9.13,0-9.05-7.17-9.76-16.54-9.76Z"/></g></svg>
